packages/icons/general/CircleLoading.svg

<svg width="36" height="36" viewBox="0 0 36 36" xmlns="http://www.w3.org/2000/svg">
<g>
        <path
            opacity="0.5"
            d="M34.5 18C34.5 27.1127 27.1127 34.5 18 34.5C8.8873 34.5 1.5 27.1127 1.5 18C1.5 8.8873 8.8873 1.5 18 1.5C27.1127 1.5 34.5 8.8873 34.5 18ZM4.8 18C4.8 25.2902 10.7098 31.2 18 31.2C25.2902 31.2 31.2 25.2902 31.2 18C31.2 10.7098 25.2902 4.8 18 4.8C10.7098 4.8 4.8 10.7098 4.8 18Z"
        />
        <path d="M18 32.85C18 33.7613 17.2594 34.5085 16.3527 34.4176C14.0175 34.1833 11.7525 33.4527 9.71221 32.2675C7.19493 30.8053 5.10933 28.7031 3.66712 26.1743C2.2249 23.6454 1.47741 20.7801 1.50052 17.869C1.52363 14.9579 2.31652 12.1048 3.79871 9.59921C5.2809 7.09361 7.39961 5.02477 9.93979 3.60267C12.48 2.18058 15.3512 1.45586 18.262 1.50208C21.1728 1.5483 24.0195 2.36382 26.5133 3.86585C28.5345 5.08328 30.2655 6.71657 31.5954 8.65034C32.1117 9.40119 31.8134 10.4101 31.0148 10.8489C30.2161 11.2877 29.2209 10.9884 28.6859 10.2507C27.6493 8.82122 26.3328 7.60953 24.8106 6.69268C22.8156 5.49105 20.5382 4.83864 18.2096 4.80166C15.8809 4.76469 13.584 5.34446 11.5518 6.48214C9.51969 7.61981 7.82472 9.27489 6.63897 11.2794C5.45322 13.2838 4.8189 15.5663 4.80042 17.8952C4.78193 20.2241 5.37992 22.5164 6.53369 24.5394C7.68747 26.5625 9.35595 28.2442 11.3698 29.414C12.9063 30.3066 14.6022 30.8768 16.3543 31.097C17.2584 31.2106 18 31.9387 18 32.85Z" />
    </g>
</svg>

<svg xmlns="http://www.w3.org/2000/svg" viewBox="0 0 36 36">
    <path d="M34.5 18c0 9.113-7.387 16.5-16.5 16.5S1.5 27.113 1.5 18 8.887 1.5 18 1.5 34.5 8.887 34.5 18ZM4.8 18c0 7.29 5.91 13.2 13.2 13.2 7.29 0 13.2-5.91 13.2-13.2 0-7.29-5.91-13.2-13.2-13.2-7.29 0-13.2 5.91-13.2 13.2Z" opacity=".5"/>
    <path d="M18 32.85c0 .911-.74 1.658-1.647 1.568A16.5 16.5 0 1 1 31.595 8.65c.517.751.218 1.76-.58 2.199-.799.439-1.794.14-2.33-.598a13.2 13.2 0 1 0-12.33 20.846c.903.114 1.645.842 1.645 1.753Z"/>
</svg>
